Papirus/64x64/apps/realtimesync.svg

<?xml version="1.0" encoding="UTF-8" standalone="no"?>
<svg
   id="_图层_1"
   version="1.1"
   viewBox="0 0 64 64" width="64" height="64"
   sodipodi:docname="realtimesync.svg"
   xml:space="preserve"
   inkscape:version="1.4 (e7c3feb100, 2024-10-09)"
   xmlns:inkscape="http://www.inkscape.org/namespaces/inkscape"
   xmlns:sodipodi="http://sodipodi.sourceforge.net/DTD/sodipodi-0.dtd"
   xmlns="http://www.w3.org/2000/svg"
   xmlns:svg="http://www.w3.org/2000/svg"><sodipodi:namedview
     id="namedview26"
     pagecolor="#505050"
     bordercolor="#eeeeee"
     borderopacity="1"
     inkscape:showpageshadow="0"
     inkscape:pageopacity="0"
     inkscape:pagecheckerboard="0"
     inkscape:deskcolor="#505050"
     inkscape:zoom="10.6875"
     inkscape:cx="32"
     inkscape:cy="32"
     inkscape:window-width="1920"
     inkscape:window-height="939"
     inkscape:window-x="0"
     inkscape:window-y="34"
     inkscape:window-maximized="1"
     inkscape:current-layer="_图层_1" /><!-- Generator: Adobe Illustrator 29.0.1, SVG Export Plug-In . SVG Version: 2.1.0 Build 192)  --><defs
     id="defs6"><style
       id="style1">
      .st0 {
        fill-opacity: .5;
      }

      .st0, .st1, .st2, .st3, .st4, .st5, .st6, .st7 {
        fill: #fff;
      }

      .st8 {
        fill: #133c9a;
      }

      .st2, .st9 {
        display: none;
      }

      .st3 {
        fill-opacity: .2;
      }

      .st4 {
        fill-opacity: .9;
      }

      .st10 {
        fill: #3370ff;
      }

      .st11 {
        fill: url(#_未命名的渐变_3);
      }

      .st12 {
        fill: url(#_未命名的渐变);
      }

      .st5 {
        fill-opacity: .3;
      }

      .st6 {
        fill-opacity: 0;
      }

      .st7 {
        fill-opacity: .7;
      }

      .st13 {
        fill: #00d6b9;
      }

      .st14 {
        fill: url(#_未命名的渐变_2);
      }
    </style><radialGradient
       id="_未命名的渐变"
       data-name="未命名的渐变"
       cx="123.9"
       cy="-40.2"
       fx="123.9"
       fy="-40.2"
       r="59.4"
       gradientTransform="translate(-26.8 25.5) scale(.6 -.7)"
       gradientUnits="userSpaceOnUse"><stop
         offset="0"
         stop-color="#db202e"
         id="stop1" /><stop
         offset="1"
         stop-color="#e01b24"
         id="stop2" /></radialGradient><radialGradient
       id="_未命名的渐变_2"
       data-name="未命名的渐变 2"
       cx="67.6"
       cy="26.8"
       fx="67.6"
       fy="26.8"
       r="105.2"
       gradientTransform="translate(-26.6 25.3) scale(.6 -.7)"
       gradientUnits="userSpaceOnUse"><stop
         offset="0"
         stop-color="#ffb648"
         id="stop3" /><stop
         offset="1"
         stop-color="#ff7800"
         stop-opacity="0"
         id="stop4" /></radialGradient><radialGradient
       id="_未命名的渐变_3"
       data-name="未命名的渐变 3"
       cx="61.7"
       cy="18.6"
       fx="61.7"
       fy="18.6"
       r="68"
       gradientTransform="translate(-26.8 25.8) scale(.6 -.7)"
       gradientUnits="userSpaceOnUse"><stop
         offset="0"
         stop-color="#c64600"
         id="stop5" /><stop
         offset="1"
         stop-color="#a51d2d"
         id="stop6" /></radialGradient></defs><path
     class="st1"
     d="M47.5,64.1H13.8c-7.6,0-13.8-6.3-13.8-13.8V13.7C0,6.2,6.2,0,13.7,0h36.6c7.5,0,13.7,6.2,13.7,13.7v36.6c0,7.5-6.2,13.7-13.7,13.7h-2.9.1Z"
     id="path6"
     style="fill:#ececec;fill-opacity:1" /><g
     id="g37"
     transform="translate(-0.9356725,-1.6224059)"><path
       style="opacity:0.2"
       d="m 32.078198,9.0007628 c -2.350887,-0.01942 -4.592397,0.314954 -6.673397,0.859356 C 17.24403,11.963365 11.549639,18.281055 9.2500154,25.711344 4.4583606,27.533808 2.3175261,33.485323 5.5256024,37.777492 l 6.0154556,8.031077 c 0.0013,0.0013 0.0026,0.0026 0.0039,0.004 0.797128,1.059338 2.003158,1.642233 3.195711,2.195265 0.433529,1.234373 0.941954,2.452058 1.813252,3.413989 0.346549,0.383402 0.729615,0.733131 1.143563,1.042947 4.289234,3.201754 9.378712,4.513491 14.20838,4.531153 -0.0563,-1.94e-4 -0.231212,-3.46e-4 0.0118,0.004 0.0118,1.03e-4 0.0235,1.03e-4 0.03524,0 3.299359,0 4.818288,-0.534854 6.48933,-0.828108 0.05136,-0.0098 0.1023,-0.02146 0.15274,-0.03516 8.160774,-2.103248 13.855163,-8.420941 16.154787,-15.851223 4.792181,-1.822121 6.932737,-7.773648 3.724413,-12.066148 l -6.015413,-8.031076 c -0.0013,-0.0013 -0.0026,-0.0026 -0.004,-0.0038 C 51.657724,19.124725 50.451655,18.541905 49.25906,17.988851 48.826058,16.753272 48.318753,15.534713 47.445807,14.570956 47.099262,14.187563 46.716202,13.837833 46.302244,13.52801 42.007576,10.322201 36.91533,9.0174658 32.089946,9.0007628 Z"
       id="path1" /><path
       style="fill:#d54747"
       d="M 32.078198,8.0007619 C 29.727311,7.9813419 27.485801,8.3157164 25.404801,8.8601184 17.24403,10.963364 11.549639,17.281054 9.2500154,24.711343 4.4583606,26.533806 2.3175261,32.485321 5.5256024,36.777491 l 6.0154556,8.031076 c 0.0013,0.0013 0.0026,0.0026 0.0039,0.004 0.797128,1.059339 2.003158,1.642233 3.195711,2.195266 0.433529,1.234373 0.941954,2.452058 1.813252,3.413988 0.346549,0.383403 0.729615,0.733131 1.143563,1.042947 4.289234,3.201755 9.378712,4.513492 14.20838,4.531154 -0.0563,-1.94e-4 -0.231212,-3.46e-4 0.0118,0.004 0.0118,1.02e-4 0.0235,1.02e-4 0.03524,0 3.299359,0 4.818288,-0.534855 6.48933,-0.828109 0.05136,-0.0098 0.1023,-0.02146 0.15274,-0.03516 8.160774,-2.103247 13.855163,-8.420941 16.154787,-15.851222 4.792181,-1.822122 6.932737,-7.773649 3.724413,-12.066148 l -6.015413,-8.031077 c -0.0013,-0.0013 -0.0026,-0.0026 -0.004,-0.0039 C 51.657724,18.124724 50.451655,17.541904 49.25906,16.98885 48.826058,15.753271 48.318753,14.534712 47.445807,13.570955 47.099262,13.187562 46.716202,12.837832 46.302244,12.528009 42.007576,9.3221996 36.91533,8.0174645 32.089946,8.0007619 Z"
       id="path2" /><path
       style="opacity:0.2"
       d="m 32.035156,16.999967 c -1.557801,-0.0155 -3.10507,0.206723 -4.605471,0.601563 -6.993206,1.801201 -11.535723,8.416701 -11.429697,15.371106 h -4.000004 l 6.000005,8.027351 6.000005,-8.027351 h -4.000003 c -0.0134,-2.912602 0.457562,-5.814086 2.476564,-7.988286 3.522803,-3.983603 10.510696,-5.613999 15.5547,-2.683596 1.675622,2.105801 5.393891,-0.207588 3.441409,-2.36719 -2.777202,-2.076942 -5.931105,-2.926196 -9.437508,-2.933597 z m 13.964856,7.972663 -6.000005,8.02735 h 4.000003 c 0.0134,2.912603 -0.457562,5.814087 -2.476564,7.988289 -3.795003,4.381283 -10.510696,5.613996 -15.5547,2.683596 -1.675622,-2.105804 -5.393891,0.20368 -3.441409,2.363282 2.777202,2.076941 5.931105,2.930102 9.437507,2.937502 l 0.004,-0.004 c 1.557802,0.0156 3.101165,-0.202816 4.601566,-0.597656 6.993112,-1.801108 11.535623,-8.416607 11.429603,-15.371013 h 4.000003 z"
       id="path3-3" /><path
       style="fill:#ffffff"
       d="m 32.035156,15.999966 c -1.557801,-0.0155 -3.10507,0.206723 -4.605471,0.601563 -6.993206,1.801201 -11.535723,8.4167 -11.429697,15.371106 h -4.000004 l 6.000005,8.02735 6.000005,-8.02735 h -4.000003 c -0.0134,-2.912603 0.457562,-5.814087 2.476564,-7.988287 3.522803,-3.983603 10.510696,-5.613999 15.5547,-2.683596 1.675622,2.105802 5.393891,-0.207588 3.441409,-2.36719 -2.777202,-2.076942 -5.931105,-2.926196 -9.437508,-2.933596 z m 13.964856,7.972662 -6.000005,8.027351 h 4.000003 c 0.0134,2.912602 -0.457562,5.814086 -2.476564,7.988288 -3.795003,4.381284 -10.510696,5.613997 -15.5547,2.683596 -1.675622,-2.105803 -5.393891,0.20368 -3.441409,2.363282 2.777202,2.076942 5.931105,2.930102 9.437507,2.937502 l 0.004,-0.004 c 1.557802,0.0156 3.101165,-0.202816 4.601566,-0.597656 6.993112,-1.801107 11.535623,-8.416607 11.429603,-15.371012 h 4.000003 z"
       id="path4" /><path
       style="opacity:0.2;fill:#ffffff"
       d="M 32.078125,8 C 29.727238,7.98058 27.485297,8.314973 25.404297,8.859375 17.243526,10.962621 11.549624,17.280649 9.25,24.710938 5.8642066,25.998694 3.8122681,29.348009 4.0253906,32.716797 4.2321772,29.704327 6.2005799,26.870757 9.25,25.710938 11.549624,18.280648 17.243526,11.962621 25.404297,9.859375 27.485297,9.314973 29.727238,8.98058 32.078125,9 h 0.01172 c 4.825384,0.016703 9.918222,1.321534 14.21289,4.527344 0.413958,0.309823 0.796034,0.659576 1.142578,1.042968 0.872946,0.963757 1.381452,2.18239 1.814454,3.417969 1.192595,0.553054 2.398275,1.135731 3.195312,2.195313 0.0014,0.0013 0.0026,0.0026 0.0039,0.0039 l 6.015625,8.03125 c 0.941183,1.259232 1.411352,2.661902 1.5,4.060547 0.117695,-1.720664 -0.333819,-3.500285 -1.5,-5.060547 L 52.458984,19.1875 c -0.0013,-0.0013 -0.0025,-0.0026 -0.0039,-0.0039 C 51.658041,18.124012 50.452361,17.541335 49.259766,16.988281 48.826764,15.752702 48.318258,14.534069 47.445312,13.570312 47.098768,13.18692 46.716692,12.837167 46.302734,12.527344 42.008066,9.3215343 36.915228,8.0167026 32.089844,8 Z"
       id="path5" /></g></svg>

<svg xmlns="http://www.w3.org/2000/svg" width="64" height="64" version="1">
 <path style="opacity:0.2" d="m 32.078198,9.0007628 c -2.350887,-0.01942 -4.592397,0.314954 -6.673397,0.859356 C 17.24403,11.963365 11.549639,18.281055 9.2500154,25.711344 4.4583606,27.533808 2.3175261,33.485323 5.5256024,37.777492 l 6.0154556,8.031077 c 0.0013,0.0013 0.0026,0.0026 0.0039,0.004 0.797128,1.059338 2.003158,1.642233 3.195711,2.195265 0.433529,1.234373 0.941954,2.452058 1.813252,3.413989 0.346549,0.383402 0.729615,0.733131 1.143563,1.042947 4.289234,3.201754 9.378712,4.513491 14.20838,4.531153 -0.0563,-1.94e-4 -0.231212,-3.46e-4 0.0118,0.004 0.0118,1.03e-4 0.0235,1.03e-4 0.03524,0 3.299359,0 4.818288,-0.534854 6.48933,-0.828108 0.05136,-0.0098 0.1023,-0.02146 0.15274,-0.03516 8.160774,-2.103248 13.855163,-8.420941 16.154787,-15.851223 4.792181,-1.822121 6.932737,-7.773648 3.724413,-12.066148 l -6.015413,-8.031076 c -0.0013,-0.0013 -0.0026,-0.0026 -0.004,-0.0038 C 51.657724,19.124725 50.451655,18.541905 49.25906,17.988851 48.826058,16.753272 48.318753,15.534713 47.445807,14.570956 47.099262,14.187563 46.716202,13.837833 46.302244,13.52801 42.007576,10.322201 36.91533,9.0174658 32.089946,9.0007628 Z"/>
 <path style="fill:#d54747" d="M 32.078198,8.0007619 C 29.727311,7.9813419 27.485801,8.3157164 25.404801,8.8601184 17.24403,10.963364 11.549639,17.281054 9.2500154,24.711343 4.4583606,26.533806 2.3175261,32.485321 5.5256024,36.777491 l 6.0154556,8.031076 c 0.0013,0.0013 0.0026,0.0026 0.0039,0.004 0.797128,1.059339 2.003158,1.642233 3.195711,2.195266 0.433529,1.234373 0.941954,2.452058 1.813252,3.413988 0.346549,0.383403 0.729615,0.733131 1.143563,1.042947 4.289234,3.201755 9.378712,4.513492 14.20838,4.531154 -0.0563,-1.94e-4 -0.231212,-3.46e-4 0.0118,0.004 0.0118,1.02e-4 0.0235,1.02e-4 0.03524,0 3.299359,0 4.818288,-0.534855 6.48933,-0.828109 0.05136,-0.0098 0.1023,-0.02146 0.15274,-0.03516 8.160774,-2.103247 13.855163,-8.420941 16.154787,-15.851222 4.792181,-1.822122 6.932737,-7.773649 3.724413,-12.066148 l -6.015413,-8.031077 c -0.0013,-0.0013 -0.0026,-0.0026 -0.004,-0.0039 C 51.657724,18.124724 50.451655,17.541904 49.25906,16.98885 48.826058,15.753271 48.318753,14.534712 47.445807,13.570955 47.099262,13.187562 46.716202,12.837832 46.302244,12.528009 42.007576,9.3221996 36.91533,8.0174645 32.089946,8.0007619 Z"/>
 <path style="opacity:0.2" d="m 32.035156,16.999967 c -1.557801,-0.0155 -3.10507,0.206723 -4.605471,0.601563 -6.993206,1.801201 -11.535723,8.416701 -11.429697,15.371106 h -4.000004 l 6.000005,8.027351 6.000005,-8.027351 h -4.000003 c -0.0134,-2.912602 0.457562,-5.814086 2.476564,-7.988286 3.522803,-3.983603 10.510696,-5.613999 15.5547,-2.683596 1.675622,2.105801 5.393891,-0.207588 3.441409,-2.36719 -2.777202,-2.076942 -5.931105,-2.926196 -9.437508,-2.933597 z m 13.964856,7.972663 -6.000005,8.02735 h 4.000003 c 0.0134,2.912603 -0.457562,5.814087 -2.476564,7.988289 -3.795003,4.381283 -10.510696,5.613996 -15.5547,2.683596 -1.675622,-2.105804 -5.393891,0.20368 -3.441409,2.363282 2.777202,2.076941 5.931105,2.930102 9.437507,2.937502 l 0.004,-0.004 c 1.557802,0.0156 3.101165,-0.202816 4.601566,-0.597656 6.993112,-1.801108 11.535623,-8.416607 11.429603,-15.371013 h 4.000003 z"/>
 <path style="fill:#ffffff" d="m 32.035156,15.999966 c -1.557801,-0.0155 -3.10507,0.206723 -4.605471,0.601563 -6.993206,1.801201 -11.535723,8.4167 -11.429697,15.371106 h -4.000004 l 6.000005,8.02735 6.000005,-8.02735 h -4.000003 c -0.0134,-2.912603 0.457562,-5.814087 2.476564,-7.988287 3.522803,-3.983603 10.510696,-5.613999 15.5547,-2.683596 1.675622,2.105802 5.393891,-0.207588 3.441409,-2.36719 -2.777202,-2.076942 -5.931105,-2.926196 -9.437508,-2.933596 z m 13.964856,7.972662 -6.000005,8.027351 h 4.000003 c 0.0134,2.912602 -0.457562,5.814086 -2.476564,7.988288 -3.795003,4.381284 -10.510696,5.613997 -15.5547,2.683596 -1.675622,-2.105803 -5.393891,0.20368 -3.441409,2.363282 2.777202,2.076942 5.931105,2.930102 9.437507,2.937502 l 0.004,-0.004 c 1.557802,0.0156 3.101165,-0.202816 4.601566,-0.597656 6.993112,-1.801107 11.535623,-8.416607 11.429603,-15.371012 h 4.000003 z"/>
 <path style="fill:#ffffff;opacity:0.2" d="M 32.078125 8 C 29.727238 7.98058 27.485297 8.314973 25.404297 8.859375 C 17.243526 10.962621 11.549624 17.280649 9.25 24.710938 C 5.8642066 25.998694 3.8122681 29.348009 4.0253906 32.716797 C 4.2321772 29.704327 6.2005799 26.870757 9.25 25.710938 C 11.549624 18.280648 17.243526 11.962621 25.404297 9.859375 C 27.485297 9.314973 29.727238 8.98058 32.078125 9 L 32.089844 9 C 36.915228 9.0167026 42.008066 10.321534 46.302734 13.527344 C 46.716692 13.837167 47.098768 14.18692 47.445312 14.570312 C 48.318258 15.534069 48.826764 16.752702 49.259766 17.988281 C 50.452361 18.541335 51.658041 19.124012 52.455078 20.183594 C 52.456478 20.184894 52.457684 20.1862 52.458984 20.1875 L 58.474609 28.21875 C 59.415792 29.477982 59.885961 30.880652 59.974609 32.279297 C 60.092304 30.558633 59.64079 28.779012 58.474609 27.21875 L 52.458984 19.1875 C 52.457684 19.1862 52.456478 19.184894 52.455078 19.183594 C 51.658041 18.124012 50.452361 17.541335 49.259766 16.988281 C 48.826764 15.752702 48.318258 14.534069 47.445312 13.570312 C 47.098768 13.18692 46.716692 12.837167 46.302734 12.527344 C 42.008066 9.3215343 36.915228 8.0167026 32.089844 8 L 32.078125 8 z"/>
</svg>
